X:3017
T:Coilsfield House
R:March
C:Nathaniel Gow, around 1800
O:Scotland
Z:Paul Hardy's Session Tunebook 2015 (see www.paulhardy.net). Creative Commons cc by-nc-sa licenced.
M:4/4
L:1/8
Q:1/4=100
K:G
GA|"G"B2 D2 G2 B,2|G,6 AB|"Am"c2 A2 B2 G2|"D"F2 A2 D3 c|"G"cBAG "Em"GFED|"C"G4 E2 C2|"G"B,2 G2 "D"A,2 F2|"G"G2 G,2 G,2:|
"G"Bc|d2 B2 d2 B2|"C"e4 A2 Bc|"G"d2 G2 F2 G2|"D"AGFE D2 Bc|"G"d2 B2 d2 B2|"C"cd e2 ef g2|"D"fgag fdef|"G"g2 G2 G2 ga|
"G"b2 g2 d2 B2|"C"cd e2 HA2 Bc|"G"d2 G2 F2 G2|"D"AGFE D2 c2|"G"B2 G2 D2 B,2|"C"C2 DE HA,2 DC|"G"B,2 G2 "D"A,2 F2|"G"G2 G,2 G,2|]

